X:1
T:Title
%%score { ( 1 2 ) | ( 3 4 ) }
L:1/8
M:4/4
K:F
V:1 treble nm="Grand Piano"
V:2 treble 
V:3 bass 
V:4 bass 
V:1
 z4 z2[Q:1/4=100] z A | c3 c =Bcdc | c4 A2 F2 | A3 A AcBA | [CEG]6 [A,F]2 | %5
 [Ac]3 [Ac] [_A=B][=Ac][_Bd][Ac] | [Ac]4 [CFA]2 [CF]2 | [EG]3 [EG] [EG][GB][FA]G |[M:3/4] F6 | %9
[M:1/4] cc |[M:4/4] [Fd][Fd][Fd][DB] [DF][DF][DB][Fd] | [Fc]4 [FA]2 [FA][FA] | %12
 [^CEA]3 [A,CE] [A,DF]2 .[=B,DG]2 | %13
[M:17/16] [CEG]/-[CEG]/-[CEG]/-[CEG]/-[CEG]/-[CEG]/-[CEG]/-[CEG]/-[CEG]-<[CEG][Ec]3/2[CGB] | %14
[M:4/4] [CFA][CFA][CFA][CGB] [CAc][CFA][C_EG][F,EF] | [DB]2 [DB]4 [DB][B,DG] | %16
 [A,CF]2 z [CFA] [CEA] [B,EG]3 |[M:7/4] [F,A,F]6 z2 z2 z4 |[M:1/4] [A,CF][CFA] | %19
[M:4/4] [CFA][CEG]GG GG[CEG][CGB] | [CGB][CFA]AA AA[^CGA][CGA] | [DFA]3 [DFA] [DF=B]2 [FB]2 | %22
[M:17/16] [Ec]/-[Ec]/-[Ec]/-[Ec]/-[Ec]/-[Ec]/-[Ec]/-[Ec]/-[Ec]-<[Ec][Ec]3/2[CGB] | %23
[M:4/4] [CFA][CFA][CFA][CGB] [CAc][CFA][C_EG][F,EF] | [DB]2 [DB]4 [DB]G | F2 z A A G3 | %26
[M:3/4] [A,F]6 |] %27
V:2
 z4 z2 F2 | x8 | x8 | x8 | x8 | x8 | x8 | x8 |[M:3/4] x6 |[M:1/4] x2 |[M:4/4] x8 | x8 | x8 | %13
[M:17/16] x17/2 |[M:4/4] x8 | x8 | x8 |[M:7/4] x14 |[M:1/4] x2 |[M:4/4] x8 | x8 | x8 | %22
[M:17/16] x17/2 |[M:4/4] x8 | x8 | x8 |[M:3/4] x6 |] %27
V:3
 z4 z2 [F,A,]2 | [F,A,F]3 [F,A,F] [F,_A,F][F,=A,F][F,B,F][F,A,F] | [F,A,F]4 [F,CF]2 [F,A,C]2 | %3
 [F,CF]3 [F,CF] [F,CF][A,CF][G,CF][K:bass][F,CF] | C,6 z A | F,3 F, F,F,F,F, | F,4 z4 | %7
 [C,C]3 [C,C] [C,C][C,C][C,C][C,B,C] |[M:3/4] [F,A,C]6 |[M:1/4] [F,A,F][F,A,F] | %10
[M:4/4] [B,,B,][B,,B,][B,,B,][B,,B,] [B,,B,][B,,B,][B,,F,][B,,B,] | [F,A,]4 [F,C]2 [D,D][D,D] | %12
 A,,3 A,, D,2 z F |[M:17/16] C,/-C,/-C,/-C,/-C,/-C,/-C,/-C,/-C,-<C,[C,G,]3/2C, | %14
[M:4/4] F,F,F,F, F,F,A,,A,, | [B,,F,]2 [B,,F,]4 [B,,F,]B,, | C,2 z C, C, C,3 | %17
[M:7/4] F,,6 z2 z2 z4 |[M:1/4] F,F, |[M:4/4] C,C,EE EEC,C, | F,F,[K:treble]FF FF[K:bass]E,E, | %21
 D,3 D, G,2 G,2 | %22
[M:17/16] [C,G,]/-[C,G,]/-[C,G,]/-[C,G,]/-[C,G,]/-[C,G,]/-[C,G,]/-[C,G,]/-[C,G,]-<[C,G,][C,G,]3/2C, | %23
[M:4/4] F,F,F,F, F,F,A,,A,, | [B,,F,]2 [B,,F,]4 [B,,F,][B,,F,B,] | %25
 [C,F,A,]2 z [C,F,C] [C,E,C] [C,E,B,]3 |[M:3/4] [F,,F,]6 |] %27
V:4
 x8 | x8 | x8 | x7[K:bass] x | z4 z2 F,2 | x8 | z2 A,2 F,2 A,,2 | x8 |[M:3/4] x6 |[M:1/4] x2 | %10
[M:4/4] x8 | x8 | z4 z2 D,2 |[M:17/16] x17/2 |[M:4/4] x8 | x8 | x8 |[M:7/4] x14 |[M:1/4] x2 | %19
[M:4/4] x8 | x2[K:treble] x4[K:bass] x2 | x8 |[M:17/16] x17/2 |[M:4/4] x8 | x8 | x8 |[M:3/4] x6 |] %27

